!!!COM: Music21
!!!OTL: reel_Mrs-Forbes-Leith
!!!OMV: reel_Mrs-Forbes-Leith
**kern
*clefG2
*k[b-e-]
*g:
*M4/4
=1
8B-L
8AJ
8B-L
8dJ
8fL
8b-J
8ddL
8ccJ
=
8b-L
8aJ
8b-L
8gJ
8fL
8dJ
8B-L
8dJ
=
8cL
8BnJ
8cL
8e-J
8b-L
8ccJ
8ee-L
8ddJ
=
8ccL
8b-J
8aL
8gJ
8fL
8e-J
8dL
8cJ
=
8B-L
8AJ
8B-L
8dJ
8fL
8b-J
8ddL
8ccJ
!!linebreak:original
=
8b-L
8aJ
8b-L
8gJ
8fL
8dJ
8B-L
8dJ
=
8e-L
8gJ
8ccL
8ddJ
8ee-L
8ccJ
8ggL
8ffJ
=
8ffL
8eenJ
8ee-XL
8ccJ
8aL
8ggJ
8ee-L
8ccJ
=||
4b-
8aL
8b-J
8ddL
8b-J
8aL
8b-J
=
8ffL
8b-J
8ggL
8b-J
8ffL
8b-J
8ddL
8b-J
!!linebreak:original
=
4f
8enL
8fJ
8aL
8fJ
8e-XL
8fJ
=
8ccL
8fJ
8ee-L
8fJ
8ddL
8fJ
8ccL
8fJ
=
4b-
8aL
8b-J
8ddL
8b-J
8aL
8b-J
=
8ffL
8b-J
8ggL
8b-J
8ffL
8b-J
8ddL
8b-J
=
8e-L
8gJ
8ccL
8ee-J
8dL
8fJ
8b-L
8ddJ
!!linebreak:original
=
8ddL
8ccJ
8b-L
8aJ
2b-
=||
*-
